svg/map/aiming_2_fill.svg

<?xml version="1.0" encoding="UTF-8"?>
<svg width="24px" height="24px" viewBox="0 0 24 24" version="1.1" xmlns="http://www.w3.org/2000/svg" xmlns:xlink="http://www.w3.org/1999/xlink">
    <title>aiming_2_fill</title>
    <g id="页面-1" stroke="none" stroke-width="1" fill="none" fill-rule="evenodd">
        <g id="Map" transform="translate(-480.000000, -48.000000)" fill-rule="nonzero">
            <g id="aiming_2_fill" transform="translate(480.000000, 48.000000)">
                 <path d="M24,0 L24,24 L0,24 L0,0 L24,0 Z M12.5934901,23.257841 L12.5819402,23.2595131 L12.5108777,23.2950439 L12.4918791,23.2987469 L12.4918791,23.2987469 L12.4767152,23.2950439 L12.4056548,23.2595131 C12.3958229,23.2563662 12.3870493,23.2590235 12.3821421,23.2649074 L12.3780323,23.275831 L12.360941,23.7031097 L12.3658947,23.7234994 L12.3769048,23.7357139 L12.4804777,23.8096931 L12.4953491,23.8136134 L12.4953491,23.8136134 L12.5071152,23.8096931 L12.6106902,23.7357139 L12.6232938,23.7196733 L12.6232938,23.7196733 L12.6266527,23.7031097 L12.609561,23.275831 C12.6075724,23.2657013 12.6010112,23.2592993 12.5934901,23.257841 L12.5934901,23.257841 Z M12.8583906,23.1452862 L12.8445485,23.1473072 L12.6598443,23.2396597 L12.6498822,23.2499052 L12.6498822,23.2499052 L12.6471943,23.2611114 L12.6650943,23.6906389 L12.6699349,23.7034178 L12.6699349,23.7034178 L12.678386,23.7104931 L12.8793402,23.8032389 C12.8914285,23.8068999 12.9022333,23.8029875 12.9078286,23.7952264 L12.9118235,23.7811639 L12.8776777,23.1665331 C12.8752882,23.1545897 12.8674102,23.1470016 12.8583906,23.1452862 L12.8583906,23.1452862 Z M12.1430473,23.1473072 C12.1332178,23.1423925 12.1221763,23.1452606 12.1156365,23.1525954 L12.1099173,23.1665331 L12.0757714,23.7811639 C12.0751323,23.7926639 12.0828099,23.8018602 12.0926481,23.8045676 L12.108256,23.8032389 L12.3092106,23.7104931 L12.3186497,23.7024347 L12.3186497,23.7024347 L12.3225043,23.6906389 L12.340401,23.2611114 L12.337245,23.2485176 L12.337245,23.2485176 L12.3277531,23.2396597 L12.1430473,23.1473072 Z" id="MingCute" fill-rule="nonzero"></path>
                <path d="M12,2 C12.51285,2 12.9355092,2.38604429 12.9932725,2.88337975 L13,3 L13,3.05493 C17.080913,3.506055 20.3394809,6.68571438 20.911,10.7291766 L20.9451,11 L21,11 C21.5523,11 22,11.4477 22,12 C22,12.51285 21.613973,12.9355092 21.1166239,12.9932725 L21,13 L20.9451,13 C20.4939261,17.080913 17.3142656,20.3394809 13.2708221,20.911 L13,20.9451 L13,21 C13,21.5523 12.5523,22 12,22 C11.48715,22 11.0644908,21.613973 11.0067275,21.1166239 L11,21 L11,20.9451 C6.91906739,20.4939261 3.66049915,17.3142656 3.08902681,13.2708221 L3.05493,13 L3,13 C2.44772,13 2,12.5523 2,12 C2,11.48715 2.38604429,11.0644908 2.88337975,11.0067275 L3,11 L3.05493,11 C3.506055,6.91906739 6.68571438,3.66049915 10.7291766,3.08902681 L11,3.05493 L11,3 C11,2.44772 11.4477,2 12,2 Z M12,7 C9.23858,7 7,9.23858 7,12 C7,14.7614 9.23858,17 12,17 C14.7614,17 17,14.7614 17,12 C17,9.23858 14.7614,7 12,7 Z M12,9 C13.6569,9 15,10.3431 15,12 C15,13.6569 13.6569,15 12,15 C10.3431,15 9,13.6569 9,12 C9,10.3431 10.3431,9 12,9 Z" id="形状" fill="#09244B"></path>
            </g>
        </g>
    </g>
</svg>

<svg xmlns="http://www.w3.org/2000/svg" width="24" height="24"><g fill="none" fill-rule="nonzero"><path d="M24 0v24H0V0h24ZM12.593 23.258l-.011.002-.071.035-.02.004-.014-.004-.071-.035c-.01-.004-.019-.001-.024.005l-.004.01-.017.428.005.02.01.013.104.074.015.004.012-.004.104-.074.012-.016.004-.017-.017-.427c-.002-.01-.009-.017-.017-.018Zm.265-.113-.013.002-.185.093-.01.01-.003.011.018.43.005.012.008.007.201.093c.012.004.023 0 .029-.008l.004-.014-.034-.614c-.003-.012-.01-.02-.02-.022Zm-.715.002a.023.023 0 0 0-.027.006l-.006.014-.034.614c0 .012.007.02.017.024l.015-.002.201-.093.01-.008.004-.011.017-.43-.003-.012-.01-.01-.184-.092Z"/><path fill="#09244B" d="M12 2a1 1 0 0 1 .993.883L13 3v.055a9.005 9.005 0 0 1 7.911 7.674l.034.271H21a1 1 0 0 1 .117 1.993L21 13h-.055a9.005 9.005 0 0 1-7.674 7.911l-.271.034V21a1 1 0 0 1-1.993.117L11 21v-.055a9.005 9.005 0 0 1-7.911-7.674L3.055 13H3a1 1 0 0 1-.117-1.993L3 11h.055a9.005 9.005 0 0 1 7.674-7.911L11 3.055V3a1 1 0 0 1 1-1Zm0 5a5 5 0 1 0 0 10 5 5 0 0 0 0-10Zm0 2a3 3 0 1 1 0 6 3 3 0 0 1 0-6Z"/></g></svg>
